X: 38966
T: Swaggering Jig, The
R: slip jig
M: 9/8
K: Gmajor
|:c|BGG AGE DEG|BGG GFG A2c|BGG AGE DEG|cBA BGE D2:|
B2d dge dBG|B2d dBG A3|B2d dge dBG|cBA BGE D3|
B2d dge dBG|B2d dBG Aef|gfe dBd cBA|cBA BGE D2||

